X: 2
T: Chain Cotillion  v.2
P: piffero secondo a0209
O: safd
%R: march
F: http://ancients.sudburymuster.org/mus/ssp/pdf/ashgroveF.pdf
Z: 2019 John Chambers <jc:trillian.mit.edu>
M: 4/4
L: 1/8
K: G
z2 |\
G4 d4 | B2AB G2AB | A2G2 F2E2 | D6 D2 |\
C4 D3C | B,A,B,C B,2B2 |
(AG)FE D2C2 | B,6 :: B2 |\
BcBA G2B2 | BcBA G2B2 | c4 c2Ac | B4 G2cd |\
e2dc B2A2 |
AGF2 G2FG | A2G2 F2E2 | D6 D2 |\
C4 D3C | B,A,B,C B,2B2 | (AG)FE D2C2 | B,6 :|


